www/assets/icons/directions_railway.svg

<svg xmlns="http://www.w3.org/2000/svg" width="24" height="24" viewBox="0 0 24 24" fill='currentColor'><path d="M4 16.5C4 18.43 5.57 20 7.5 20L6 21.5v.5h12v-.5L16.5 20c1.93 0 3.5-1.57 3.5-3.5V6c0-3.5-3.58-4-8-4s-8 .5-8 4zm8 1.5c-1.1 0-2-.9-2-2s.9-2 2-2 2 .9 2 2-.9 2-2 2m6-7H6V6h12z"/></svg>

<svg width="24" height="24" viewBox="0 0 24 24" xmlns="http://www.w3.org/2000/svg" fill='currentColor'><path d="M4 16.5C4 18.43 5.57 20 7.5 20L6 21.5V22H18V21.5L16.5 20C18.43 20 20 18.43 20 16.5V6C20 2.5 16.42 2 12 2C7.58 2 4 2.5 4 6V16.5ZM12 18C10.9 18 10 17.1 10 16C10 14.9 10.9 14 12 14C13.1 14 14 14.9 14 16C14 17.1 13.1 18 12 18ZM18 11H6V6H18V11Z"/></svg>
